public/images/technologies/ar_vr/features/icon_2.svg

<svg width="75" height="76" viewBox="0 0 75 76" fill="none" xmlns="http://www.w3.org/2000/svg">
<rect y="0.5" width="75" height="75" rx="8" fill="url(#paint0_linear_2582_16973)"/>
<path fill-rule="evenodd" clip-rule="evenodd" d="M36.5245 12.6193C36.1104 12.8488 36.0322 13.1306 36.0285 14.4084C36.0247 15.7234 36.1094 16.0363 36.5279 16.2527C36.8688 16.429 37.136 16.429 37.4768 16.2527C37.8918 16.0381 37.9796 15.7211 37.9796 14.4374C37.9796 13.7435 37.9325 13.1705 37.8629 13.0176C37.6489 12.548 37.001 12.3551 36.5245 12.6193ZM24.4763 15.8752C24.189 16.0534 24.0046 16.3814 24.0046 16.7142C24.0046 17.0034 25.1251 18.9829 25.3964 19.1729C25.643 19.3457 26.1768 19.3711 26.4532 19.2231C26.6817 19.101 26.9365 18.6316 26.9365 18.3331C26.9365 18.1387 26.0569 16.4897 25.7401 16.0903C25.4281 15.697 24.9067 15.6082 24.4763 15.8752ZM48.5831 15.8259C48.313 15.9807 48.218 16.1123 47.605 17.18C47.3098 17.6941 47.0683 18.213 47.0683 18.3331C47.0683 18.6316 47.3231 19.101 47.5515 19.2231C47.8279 19.3711 48.3617 19.3457 48.6084 19.1729C48.8797 18.9829 50.0001 17.0034 50.0001 16.7142C50.0001 15.9956 49.1817 15.4826 48.5831 15.8259ZM31.6274 18.9938C30.4546 19.221 29.3292 19.8493 28.5347 20.7204C27.7924 21.5343 27.4121 22.3004 27.1866 23.436C27.1441 23.65 27.044 23.7139 26.5246 23.8583C24.8805 24.3154 23.3974 25.5427 22.6658 27.0514C22.1496 28.1157 22.0297 28.6398 22.0353 29.8052L22.0401 30.7583L21.4932 31.108C19.9892 32.0702 18.8775 33.7615 18.5234 35.6263C18.3519 36.5294 18.458 37.8815 18.7744 38.8252C19.156 39.9632 19.5434 40.5781 20.4609 41.5019L21.2802 42.3267L20.9882 42.9678C20.5686 43.8892 20.4564 44.3798 20.4499 45.3192C20.4428 46.3528 20.5944 46.9991 21.0867 48.0335C22.0491 50.0555 24.0621 51.3943 26.3683 51.546L27.2172 51.6019L27.2799 51.973C27.387 52.6066 27.9589 53.6558 28.5382 54.2816C29.5651 55.3907 30.7488 55.95 32.2626 56.0411C33.8127 56.1344 35.1588 55.6346 36.3281 54.5317L37.0024 53.8956L37.6767 54.5317C39.5447 56.2939 42.2878 56.5641 44.42 55.1959C45.4691 54.5227 46.5492 53.0123 46.7249 51.973L46.7875 51.6019L47.6365 51.546C49.9426 51.3943 51.9556 50.0555 52.918 48.0335C53.4103 46.9991 53.562 46.3528 53.5548 45.3192C53.5484 44.3798 53.4361 43.8892 53.0165 42.9678L52.7245 42.3267L53.5438 41.5019C54.4613 40.5781 54.8487 39.9632 55.2304 38.8252C55.5467 37.8815 55.6528 36.5294 55.4813 35.6263C55.1273 33.7615 54.0155 32.0702 52.5115 31.108L51.9646 30.7583L51.9694 29.8052C51.9751 28.6398 51.8552 28.1157 51.339 27.0514C50.6074 25.5427 49.1243 24.3154 47.4801 23.8583C46.9608 23.7139 46.8606 23.65 46.8181 23.436C46.7906 23.2975 46.7025 22.9566 46.6224 22.6787C46.186 21.1644 44.8006 19.7683 43.1778 19.2077C42.6329 19.0194 42.3367 18.9833 41.4001 18.991C39.7542 19.0045 38.8018 19.3913 37.6132 20.5291L37.0024 21.1138L36.3916 20.5291C35.2851 19.47 34.281 19.0372 32.8001 18.9815C32.2895 18.9623 31.7617 18.9679 31.6274 18.9938ZM33.7806 21.1329C34.6488 21.4392 35.3364 22.092 35.7626 23.0146C35.9751 23.4747 35.9764 23.5144 36.0044 30.4519L36.0325 37.4266L35.5684 37.357C34.1487 37.1442 33.4334 36.5704 32.458 34.8623C31.3709 32.9585 30.4736 32.2051 28.9026 31.8776C28.2362 31.7387 28.1628 31.7403 27.8306 31.9028C27.3501 32.1378 27.1711 32.5225 27.3165 33.0078C27.4485 33.4486 27.6966 33.6269 28.3821 33.7739C29.0264 33.9121 29.5474 34.1765 29.884 34.5358C30.1389 34.808 31.4319 36.9627 31.4319 37.1152C31.4319 37.2578 30.6788 37.8385 29.8721 38.3179C29.2961 38.6602 29.0298 38.8837 28.9176 39.1189C28.618 39.7471 29.0761 40.453 29.7825 40.4518C29.9816 40.4515 30.3638 40.3091 30.7458 40.0927C31.4067 39.7184 32.5972 38.8693 32.7945 38.6317C32.8914 38.515 33.0043 38.5384 33.5309 38.7849C33.873 38.945 34.5192 39.1456 34.9668 39.2307C35.4145 39.3159 35.8377 39.4006 35.9071 39.4191C36.0091 39.4462 36.0279 40.6169 36.0049 45.4888L35.9762 51.5249L35.7153 52.0816C34.7011 54.2454 31.8335 54.7531 30.1046 53.0752C29.639 52.6233 29.3317 52.0838 29.1961 51.4808L29.1054 51.0772L29.5246 50.8802C30.4384 50.4507 31.1572 49.6012 31.6252 48.3976C31.9505 47.5613 32.2329 47.2264 32.8512 46.9433C33.2555 46.7582 33.4259 46.616 33.5245 46.3816C33.6914 45.9848 33.5802 45.5467 33.2362 45.2459C32.9227 44.9719 32.571 44.9682 31.8675 45.2315C31.0616 45.533 30.3895 46.2443 29.9795 47.2297C29.4166 48.5826 29.2383 48.8226 28.5635 49.1362C26.3535 50.1633 23.8151 49.2681 22.8065 47.1059C22.5223 46.4968 22.497 46.36 22.4936 45.417C22.4893 44.2416 22.6324 43.8168 23.3432 42.8956C24.0103 42.0309 23.8796 41.4937 22.8625 40.9197C22.1341 40.5087 21.2943 39.6427 20.9479 38.9457C19.9942 37.026 20.3395 34.8903 21.8459 33.3908C22.2566 32.9822 22.7325 32.6292 23.1595 32.4164C24.0863 31.9545 24.2425 31.7375 24.1417 31.0511C24.0985 30.7554 24.0637 30.1178 24.0645 29.634C24.0667 28.4546 24.3094 27.8343 25.0993 26.9899C26.0942 25.9263 27.5142 25.415 28.806 25.6552C29.6972 25.821 29.9864 26.0543 30.66 27.1503C31.3185 28.222 31.9473 28.8481 32.5198 29.0022C33.0354 29.1411 33.702 29.1437 33.9557 29.008C34.1895 28.8828 34.4617 28.42 34.4611 28.1486C34.4606 27.8927 34.1132 27.3633 33.9063 27.3031C33.8085 27.2746 33.5429 27.2033 33.316 27.1448C32.9327 27.0458 32.8616 26.97 32.3101 26.0725C31.4623 24.693 30.7532 24.0934 29.6371 23.8124C29.0887 23.6742 29.075 23.5804 29.484 22.7617C30.2368 21.2554 32.1124 20.5443 33.7806 21.1329ZM42.0848 20.9852C43.1782 21.1926 44.0567 21.8333 44.5207 22.7617C44.9297 23.5804 44.916 23.6742 44.3677 23.8124C43.2515 24.0934 42.5424 24.693 41.6946 26.0725C41.1432 26.97 41.072 27.0458 40.6887 27.1448C40.4618 27.2033 40.1962 27.2746 40.0985 27.3031C39.8916 27.3633 39.5442 27.8927 39.5437 28.1486C39.5431 28.42 39.8153 28.8828 40.049 29.008C40.3027 29.1437 40.9693 29.1411 41.4849 29.0022C42.0574 28.8481 42.6862 28.222 43.3448 27.1503C44.0183 26.0543 44.3076 25.821 45.1988 25.6552C46.4905 25.415 47.9105 25.9263 48.9055 26.9899C49.6953 27.8343 49.938 28.4546 49.9402 29.634C49.9411 30.1178 49.9063 30.7554 49.863 31.0511C49.7622 31.7375 49.9184 31.9545 50.8452 32.4164C52.8162 33.3985 53.9337 35.609 53.4909 37.6495C53.4014 38.0619 53.206 38.6451 53.0568 38.9457C52.7105 39.6427 51.8706 40.5087 51.1422 40.9197C50.1251 41.4937 49.9944 42.0309 50.6615 42.8956C51.3723 43.8168 51.5155 44.2416 51.5112 45.417C51.5077 46.36 51.4824 46.4968 51.1982 47.1059C50.1896 49.2681 47.6512 50.1633 45.4412 49.1362C44.7664 48.8226 44.5882 48.5826 44.0252 47.2297C43.6153 46.2443 42.9431 45.533 42.1373 45.2315C41.4337 44.9682 41.082 44.9719 40.7686 45.2459C40.4246 45.5467 40.3134 45.9848 40.4803 46.3816C40.5788 46.616 40.7492 46.7582 41.1535 46.9433C41.7718 47.2264 42.0543 47.5613 42.3795 48.3976C42.8475 49.6012 43.5663 50.4507 44.4802 50.8802L44.8993 51.0772L44.8086 51.4808C44.6731 52.0838 44.3657 52.6233 43.9002 53.0752C42.1713 54.7531 39.3036 54.2454 38.2894 52.0816L38.0285 51.5249V47.2738C38.0285 42.5634 38.0429 42.4385 38.674 41.6729C39.7144 40.4107 41.4932 40.6717 42.576 42.2455C43.0542 42.9406 43.7579 43.0196 44.2214 42.4304C44.5116 42.0614 44.4835 41.631 44.133 41.0785C42.9075 39.146 40.4399 38.3586 38.5633 39.3012C38.2872 39.4399 38.043 39.5533 38.0205 39.5533C37.998 39.5533 37.9796 38.1527 37.9796 36.4408V33.3284L38.517 33.4126C38.8127 33.459 39.3043 33.5904 39.6096 33.7046C40.1863 33.9204 40.4483 34.1521 41.9865 35.8075C42.9702 36.8661 44.3364 37.6192 44.9802 37.4577C45.3974 37.3529 45.7001 36.9713 45.7001 36.55C45.7001 36.017 45.4851 35.7756 44.663 35.3854C44.0551 35.0968 43.8187 34.9066 43.1828 34.195C41.3703 32.1664 40.6241 31.7342 38.3402 31.3894L37.9676 31.3331L37.9981 27.4051L38.0285 23.4772L38.2894 22.9205C38.7501 21.9377 39.6867 21.1975 40.7289 20.9928C41.3277 20.875 41.4987 20.8741 42.0848 20.9852ZM15.7389 24.6152C15.4895 24.7362 15.2092 25.1925 15.2092 25.4777C15.2092 25.7318 15.3793 26.0705 15.5916 26.2388C15.6769 26.3065 16.1673 26.6033 16.6813 26.8984C17.784 27.5316 18.1129 27.5761 18.5394 27.1495C18.8683 26.8206 18.9287 26.2583 18.6742 25.8951C18.4698 25.6031 16.4915 24.5018 16.1865 24.51C16.0521 24.5136 15.8507 24.5609 15.7389 24.6152ZM56.5277 25.0914C55.9523 25.4149 55.4135 25.7765 55.3305 25.8951C55.0761 26.2583 55.1364 26.8206 55.4653 27.1495C55.8919 27.5761 56.2207 27.5316 57.3234 26.8984C58.4151 26.2716 58.5301 26.1873 58.6819 25.9024C59.0078 25.2903 58.5057 24.5033 57.7893 24.5033C57.6708 24.5033 57.1031 24.768 56.5277 25.0914ZM47.1062 35.9942C46.5026 36.292 46.3717 37.0289 46.8361 37.5137C47.3289 38.0281 48.2143 37.8321 48.4364 37.1594C48.592 36.6876 48.3597 36.1726 47.9056 35.9828C47.4876 35.8081 47.4832 35.8082 47.1062 35.9942ZM12.4836 36.6602C12.0211 36.9164 11.867 37.4796 12.1234 37.9755C12.3381 38.3905 12.6551 38.4783 13.9387 38.4783C15.2224 38.4783 15.5394 38.3905 15.754 37.9755C16.0156 37.4696 15.8342 36.8573 15.3585 36.6406C14.9967 36.4757 12.7893 36.4907 12.4836 36.6602ZM58.6108 36.6602C58.1484 36.9164 57.9943 37.4796 58.2507 37.9755C58.4653 38.3905 58.7824 38.4783 60.066 38.4783C61.3497 38.4783 61.6667 38.3905 61.8813 37.9755C62.1429 37.4696 61.9615 36.8573 61.4858 36.6406C61.124 36.4757 58.9165 36.4907 58.6108 36.6602ZM26.5602 39.7026C26.1882 40.0157 26.0925 40.4202 26.297 40.8158C26.7897 41.7684 28.1092 41.4802 28.1092 40.4199C28.1092 39.5848 27.2003 39.1639 26.5602 39.7026ZM16.7177 48.0808C15.6284 48.7109 15.4657 48.8297 15.3224 49.0997C14.9943 49.7183 15.4872 50.4988 16.206 50.4988C16.5023 50.4988 18.4808 49.3831 18.6742 49.1071C18.847 48.8604 18.8724 48.3266 18.7244 48.0502C18.601 47.8195 18.1315 47.5667 17.8283 47.5677C17.7046 47.5681 17.2049 47.799 16.7177 48.0808ZM55.6463 47.7193C55.4998 47.7988 55.3349 47.9481 55.2798 48.051C55.1323 48.3267 55.158 48.8607 55.3305 49.1071C55.5239 49.3831 57.5024 50.4988 57.7987 50.4988C58.5177 50.4988 59.0109 49.7176 58.6819 49.0997C58.5301 48.8148 58.4151 48.7305 57.3234 48.1037C56.3436 47.5411 56.0843 47.4817 55.6463 47.7193ZM25.3964 55.8292C25.1251 56.0192 24.0046 57.9987 24.0046 58.2879C24.0046 58.7957 24.4865 59.2942 24.9774 59.2942C25.4428 59.2942 25.7194 59.0204 26.3285 57.9562C26.6628 57.3719 26.9365 56.7942 26.9365 56.6722C26.9365 56.3709 26.6827 55.9017 26.4532 55.779C26.1768 55.631 25.643 55.6564 25.3964 55.8292ZM47.5325 55.7839C47.3155 55.9102 47.0683 56.3833 47.0683 56.6722C47.0683 57.0286 48.2433 58.9972 48.551 59.1563C49.2298 59.5074 50.0001 59.0458 50.0001 58.2879C50.0001 57.9987 48.8797 56.0192 48.6084 55.8292C48.3647 55.6586 47.7892 55.6344 47.5325 55.7839ZM36.5245 58.7466C36.1104 58.976 36.0322 59.2579 36.0285 60.5357C36.0247 61.8507 36.1094 62.1636 36.5279 62.38C37.0338 62.6416 37.6461 62.4602 37.8629 61.9845C37.9325 61.8316 37.9796 61.2587 37.9796 60.5647C37.9796 59.8707 37.9325 59.2978 37.8629 59.1449C37.6489 58.6752 37.001 58.4824 36.5245 58.7466Z" fill="white"/>
<defs>
<linearGradient id="paint0_linear_2582_16973" x1="0" y1="39.0135" x2="75" y2="39.0135" gradientUnits="userSpaceOnUse">
<stop stop-color="#00469F"/>
<stop offset="1" stop-color="#1E79D6"/>
</linearGradient>
</defs>
</svg>

<svg xmlns="http://www.w3.org/2000/svg" width="75" height="76" fill="none" xmlns:v="https://vecta.io/nano"><rect y=".5" width="75" height="75" rx="8" fill="url(#A)"/><path fill-rule="evenodd" d="M36.525 12.619c-.414.229-.492.511-.496 1.789-.004 1.315.081 1.628.499 1.844.341.176.608.176.949 0 .415-.215.503-.532.503-1.815 0-.694-.047-1.267-.117-1.42-.214-.47-.862-.662-1.338-.398zm-12.048 3.256a1.01 1.01 0 0 0-.472.839c0 .289 1.12 2.269 1.392 2.459.247.173.78.198 1.057.05.229-.122.483-.591.483-.89 0-.194-.88-1.843-1.196-2.243a.94.94 0 0 0-1.264-.215zm24.107-.049c-.27.155-.365.286-.978 1.354-.295.514-.537 1.033-.537 1.153 0 .298.255.768.483.89.276.148.81.123 1.057-.05.271-.19 1.392-2.169 1.392-2.459 0-.719-.818-1.232-1.417-.888zm-16.956 3.168c-1.173.227-2.298.855-3.093 1.727-.742.814-1.123 1.58-1.348 2.716-.042.214-.143.278-.662.422-1.644.457-3.127 1.684-3.859 3.193-.516 1.064-.636 1.588-.631 2.754l.005.953-.547.35c-1.504.962-2.616 2.653-2.97 4.518-.171.903-.065 2.255.251 3.199.382 1.138.769 1.753 1.686 2.677l.819.825-.292.641c-.42.921-.532 1.412-.538 2.351-.007 1.034.145 1.68.637 2.714.962 2.022 2.975 3.361 5.282 3.513l.849.056.063.371c.107.634.679 1.683 1.258 2.309a5.22 5.22 0 0 0 3.724 1.76c1.55.093 2.896-.407 4.066-1.509l.674-.636.674.636c1.868 1.762 4.611 2.032 6.743.664 1.049-.673 2.129-2.184 2.305-3.223l.063-.371.849-.056c2.306-.152 4.319-1.49 5.282-3.513.492-1.034.644-1.681.637-2.714-.006-.939-.119-1.43-.538-2.351l-.292-.641.819-.825c.918-.924 1.305-1.539 1.687-2.677.316-.944.422-2.296.251-3.199-.354-1.865-1.466-3.556-2.97-4.518l-.547-.35.005-.953c.006-1.165-.114-1.689-.63-2.754-.732-1.509-2.215-2.736-3.859-3.193-.519-.144-.62-.208-.662-.422-.028-.139-.116-.479-.196-.757-.436-1.514-1.822-2.91-3.445-3.471-.545-.188-.841-.224-1.778-.217-1.646.014-2.598.4-3.787 1.538l-.611.585-.611-.585c-1.106-1.059-2.111-1.492-3.591-1.548-.511-.019-1.038-.014-1.173.012zm2.153 2.139c.868.306 1.556.959 1.982 1.882.212.46.214.5.242 7.437l.028 6.975-.464-.07c-1.42-.213-2.135-.787-3.11-2.495-1.087-1.904-1.984-2.657-3.555-2.985-.666-.139-.74-.137-1.072.025-.48.235-.66.62-.514 1.105.132.441.38.619 1.066.766.644.138 1.165.403 1.502.762.255.272 1.548 2.427 1.548 2.579 0 .143-.753.723-1.56 1.203-.576.342-.842.566-.954.801-.3.628.159 1.334.865 1.333.199 0 .581-.143.963-.359.661-.374 1.851-1.223 2.049-1.461.097-.117.21-.093.736.153.342.16.988.361 1.436.446l.94.188c.102.027.121 1.198.098 6.07l-.029 6.036-.261.557c-1.014 2.164-3.882 2.672-5.611.994-.466-.452-.773-.991-.909-1.594l-.091-.404.419-.197c.914-.43 1.633-1.279 2.101-2.483.325-.836.608-1.171 1.226-1.454.404-.185.575-.327.673-.562.167-.397.056-.835-.288-1.136-.313-.274-.665-.278-1.369-.014-.806.302-1.478 1.013-1.888 1.998-.563 1.353-.741 1.593-1.416 1.907-2.21 1.027-4.748.132-5.757-2.03-.284-.609-.309-.746-.313-1.689-.004-1.175.139-1.6.85-2.521.667-.865.536-1.402-.481-1.976-.728-.411-1.568-1.277-1.915-1.974-.954-1.92-.608-4.055.898-5.555a5.36 5.36 0 0 1 1.314-.974c.927-.462 1.083-.679.982-1.365-.043-.296-.078-.933-.077-1.417.002-1.179.245-1.8 1.035-2.644.995-1.064 2.415-1.575 3.707-1.335.891.166 1.18.399 1.854 1.495.659 1.072 1.287 1.698 1.86 1.852.516.139 1.182.142 1.436.006.234-.125.506-.588.505-.859-.001-.256-.348-.785-.555-.845l-.59-.158c-.383-.099-.454-.175-1.006-1.072-.848-1.38-1.557-1.979-2.673-2.26-.548-.138-.562-.232-.153-1.051.753-1.506 2.628-2.217 4.297-1.629zm8.304-.148c1.093.207 1.972.848 2.436 1.777.409.819.395.912-.153 1.051-1.116.281-1.825.881-2.673 2.26-.551.897-.623.973-1.006 1.072l-.59.158c-.207.06-.554.59-.555.845-.001.271.272.734.505.859.254.136.92.133 1.436-.006.572-.154 1.201-.78 1.86-1.852.674-1.096.963-1.329 1.854-1.495 1.292-.24 2.712.271 3.707 1.335.79.844 1.032 1.465 1.035 2.644.001.484-.034 1.121-.077 1.417-.101.686.055.903.982 1.365 1.971.982 3.089 3.193 2.646 5.233-.09.412-.285.996-.434 1.296-.346.697-1.186 1.563-1.915 1.974-1.017.574-1.148 1.111-.481 1.976.711.921.854 1.346.85 2.521-.004.943-.029 1.08-.313 1.689-1.009 2.162-3.547 3.057-5.757 2.03-.675-.314-.853-.554-1.416-1.907-.41-.985-1.082-1.697-1.888-1.998-.704-.263-1.055-.26-1.369.014-.344.301-.455.739-.288 1.136.099.234.269.377.673.562.618.283.901.618 1.226 1.454.468 1.204 1.187 2.053 2.101 2.483l.419.197-.091.404c-.136.603-.443 1.142-.908 1.594-1.729 1.678-4.597 1.17-5.611-.994l-.261-.557v-4.251c0-4.71.014-4.835.645-5.601 1.04-1.262 2.819-1.001 3.902.573.478.695 1.182.774 1.645.185.29-.369.262-.799-.088-1.352-1.226-1.932-3.693-2.72-5.57-1.777l-.543.252c-.023 0-.041-1.401-.041-3.112v-3.112l.537.084c.296.046.787.178 1.093.292.577.216.839.447 2.377 2.103.984 1.059 2.35 1.812 2.994 1.65.417-.105.72-.486.72-.908 0-.533-.215-.774-1.037-1.165-.608-.289-.844-.479-1.48-1.19-1.812-2.029-2.559-2.461-4.843-2.806l-.373-.056.031-3.928.03-3.928.261-.557c.461-.983 1.397-1.723 2.44-1.928.599-.118.77-.119 1.356-.008zm-26.346 3.63c-.249.121-.53.577-.53.862 0 .254.17.593.382.761.085.068.576.364 1.09.66 1.103.633 1.432.678 1.858.251.329-.329.389-.891.135-1.254-.204-.292-2.183-1.393-2.488-1.385-.134.004-.336.051-.448.105zm40.789.476c-.575.323-1.114.685-1.197.804-.254.363-.194.925.135 1.254.427.427.755.382 1.858-.251 1.092-.627 1.207-.711 1.358-.996.326-.612-.176-1.399-.893-1.399-.118 0-.686.265-1.262.588zm-9.422 10.903c-.604.298-.735 1.035-.27 1.52.493.514 1.378.318 1.6-.354.156-.472-.077-.987-.531-1.177-.418-.175-.422-.175-.799.011zm-34.623.666c-.462.256-.617.819-.36 1.315.215.415.532.503 1.815.503s1.601-.088 1.815-.503c.262-.506.08-1.118-.396-1.335-.362-.165-2.569-.15-2.875.02zm46.127 0c-.462.256-.616.819-.36 1.315.215.415.532.503 1.815.503s1.601-.088 1.815-.503c.262-.506.08-1.118-.396-1.335-.362-.165-2.569-.15-2.875.02zM26.56 39.703c-.372.313-.468.718-.263 1.113.493.953 1.812.664 1.812-.396 0-.835-.909-1.256-1.549-.717zm-9.842 8.378c-1.089.63-1.252.749-1.395 1.019-.328.619.165 1.399.884 1.399.296 0 2.275-1.116 2.468-1.392.173-.247.198-.781.05-1.057-.123-.231-.593-.483-.896-.482-.124 0-.623.231-1.111.513zm38.929-.362c-.146.08-.311.229-.366.332-.148.276-.122.81.051 1.056.193.276 2.172 1.392 2.468 1.392.719 0 1.212-.781.883-1.399-.152-.285-.267-.369-1.358-.996-.98-.563-1.239-.622-1.677-.384zm-30.25 8.11c-.271.19-1.392 2.169-1.392 2.459 0 .508.482 1.006.973 1.006.465 0 .742-.274 1.351-1.338.334-.584.608-1.162.608-1.284 0-.301-.254-.77-.483-.893-.276-.148-.81-.123-1.057.05zm22.136-.045c-.217.126-.464.599-.464.888 0 .356 1.175 2.325 1.483 2.484.679.351 1.449-.111 1.449-.868 0-.289-1.12-2.269-1.392-2.459a1.27 1.27 0 0 0-1.076-.045zm-11.008 2.963c-.414.229-.492.511-.496 1.789-.004 1.315.081 1.628.499 1.844.506.262 1.118.08 1.335-.396.07-.153.117-.726.117-1.42s-.047-1.267-.117-1.42c-.214-.47-.862-.663-1.338-.398z" fill="#fff"/><defs><linearGradient id="A" x1="0" y1="39.014" x2="75" y2="39.014" gradientUnits="userSpaceOnUse"><stop stop-color="#00469f"/><stop offset="1" stop-color="#1e79d6"/></linearGradient></defs></svg>
